; generated by Slic3r 1.3.0-dev on 2018-04-21 at 10:37:23

; external perimeters extrusion width = 0.40mm (1.73mm^3/s)
; perimeters extrusion width = 0.56mm (2.51mm^3/s)
; infill extrusion width = 0.56mm (2.51mm^3/s)
; solid infill extrusion width = 0.56mm (2.51mm^3/s)
; top infill extrusion width = 0.56mm (2.51mm^3/s)

M107
M190 S65 ; set bed temperature and wait for it to be reached
M104 S210 ; set temperature
G28
m117 homming
G92 E0
G1 F200 E15
G92 E0
G4  S4;ESPERA PARA LIMPIEZA
m117 imprimiendo
; Filament gcode

M109 S210 ; set temperature and wait for it to be reached
G21 ; set units to millimeters
G90 ; use absolute coordinates
M82 ; use absolute distances for extrusion
G92 E0
M117 Restante 00.15
G1 Z0.300 F3000.000
G1 E-2.00000 F2400.00000
G92 E0
G1 X80.543 Y75.415 F3000.000
G1 E2.00000 F2400.00000
G1 F600
G1 X83.686 Y72.862 E2.27045
G1 X87.267 Y70.976 E2.54089
G1 X91.150 Y69.829 E2.81134
G1 X95.000 Y69.464 E3.06971
G1 X105.000 Y69.464 E3.73777
G1 X109.029 Y69.863 E4.00821
G1 X112.901 Y71.045 E4.27866
G1 X116.466 Y72.963 E4.54911
G1 X119.585 Y75.543 E4.81955
G1 X122.138 Y78.686 E5.09000
G1 X124.024 Y82.267 E5.36045
G1 X125.171 Y86.150 E5.63089
G1 X125.536 Y90.000 E5.88927
G1 X125.536 Y110.000 E7.22537
G1 X125.137 Y114.029 E7.49582
G1 X123.955 Y117.901 E7.76627
G1 X122.037 Y121.466 E8.03671
G1 X119.457 Y124.585 E8.30716
G1 X116.314 Y127.138 E8.57761
G1 X112.733 Y129.024 E8.84805
G1 X108.850 Y130.171 E9.11850
G1 X105.000 Y130.536 E9.37687
G1 X95.000 Y130.536 E10.04493
G1 X90.971 Y130.137 E10.31537
G1 X87.099 Y128.955 E10.58582
G1 X83.534 Y127.037 E10.85626
G1 X80.415 Y124.457 E11.12671
G1 X77.862 Y121.314 E11.39716
G1 X75.976 Y117.733 E11.66760
G1 X74.829 Y113.850 E11.93805
G1 X74.464 Y110.000 E12.19642
G1 X74.464 Y90.000 E13.53253
G1 X74.863 Y85.971 E13.80298
G1 X76.045 Y82.099 E14.07342
G1 X77.963 Y78.534 E14.34387
G1 X80.505 Y75.461 E14.61031
G1 E12.61031 F2400.00000
G92 E0
G1 X92.082 Y86.954 F3000.000
G1 E2.00000 F2400.00000
G1 F600
G1 X93.253 Y85.783 E2.11475
G1 X106.747 Y85.783 E3.04975
G1 X109.217 Y88.253 E3.29183
G1 X109.217 Y111.747 E4.91974
G1 X106.747 Y114.217 E5.16182
G1 X93.253 Y114.217 E6.09682
G1 X90.783 Y111.747 E6.33890
G1 X90.783 Y88.253 E7.96682
G1 X92.040 Y86.996 E8.08999
G1 X92.475 Y87.347 F3000.000
G1 F600
G1 X93.483 Y86.338 E8.18879
G1 X106.517 Y86.338 E9.09190
G1 X108.662 Y88.483 E9.30209
G1 X108.662 Y111.517 E10.89812
G1 X106.517 Y113.662 E11.10830
G1 X93.483 Y113.662 E12.01141
G1 X91.338 Y111.517 E12.22160
G1 X91.338 Y88.483 E13.81763
G1 X92.433 Y87.389 E13.92485
G1 X92.868 Y87.740 F3000.000
G1 F600
G1 X93.713 Y86.894 E14.00771
G1 X106.287 Y86.894 E14.87893
G1 X108.106 Y88.713 E15.05723
G1 X108.106 Y111.287 E16.62136
G1 X106.287 Y113.106 E16.79966
G1 X93.713 Y113.106 E17.67088
G1 X91.894 Y111.287 E17.84917
G1 X91.894 Y88.713 E19.41331
G1 X92.825 Y87.782 E19.50459
G1 X93.261 Y88.132 F3000.000
G1 F600
G1 X93.944 Y87.450 E19.57150
G1 X106.056 Y87.450 E20.41083
G1 X107.550 Y88.944 E20.55724
G1 X107.550 Y111.056 E22.08948
G1 X106.056 Y112.550 E22.23589
M117 Restante 00.14
G1 X93.944 Y112.550 E23.07521
G1 X92.450 Y111.056 E23.22162
G1 X92.450 Y88.944 E24.75387
G1 X93.218 Y88.175 E24.82920
G1 X93.654 Y88.525 F3000.000
G1 F600
G1 X94.174 Y88.005 E24.88017
G1 X105.826 Y88.005 E25.68761
G1 X106.995 Y89.174 E25.80212
G1 X106.995 Y110.826 E27.30248
G1 X105.826 Y111.995 E27.41699
G1 X94.174 Y111.995 E28.22443
G1 X93.005 Y110.826 E28.33894
G1 X93.005 Y89.174 E29.83930
G1 X93.611 Y88.568 E29.89869
G1 X94.046 Y88.918 F3000.000
G1 F600
G1 X94.404 Y88.561 E29.93371
G1 X105.596 Y88.561 E30.70926
G1 X106.439 Y89.404 E30.79188
G1 X106.439 Y110.596 E32.26035
G1 X105.596 Y111.439 E32.34297
G1 X94.404 Y111.439 E33.11852
G1 X93.561 Y110.596 E33.20114
G1 X93.561 Y89.404 E34.66961
G1 X94.004 Y88.960 E34.71305
G1 X94.439 Y89.311 F3000.000
G1 F600
G1 X94.634 Y89.116 E34.73213
G1 X105.366 Y89.116 E35.47578
G1 X105.884 Y89.634 E35.52652
G1 X105.884 Y110.366 E36.96309
G1 X105.366 Y110.884 E37.01382
G1 X94.634 Y110.884 E37.75748
G1 X94.116 Y110.366 E37.80821
G1 X94.116 Y89.634 E39.24479
G1 X94.397 Y89.353 E39.27229
G1 X94.672 Y89.864 F3000.000
G1 F600
G1 X94.864 Y89.672 E39.29113
G1 X105.136 Y89.672 E40.00289
G1 X105.328 Y89.864 E40.02174
G1 X105.328 Y110.136 E41.42642
G1 X105.136 Y110.328 E41.44526
G1 X94.864 Y110.328 E42.15703
G1 X94.672 Y110.136 E42.17587
G1 X94.672 Y89.924 E43.57640
G1 E41.57640 F2400.00000
G92 E0
G1 X104.700 Y109.700 F3000.000
G1 E2.00000 F2400.00000
G1 F600
G1 X95.300 Y109.700 E2.62797
G1 X95.300 Y90.300 E3.92400
G1 X104.700 Y90.300 E4.55197
G1 X104.700 Y109.640 E5.84398
G1 X104.328 Y109.554 F3000.000
G1 X104.164 Y109.164 F3000.000
G1 F600
G1 X95.836 Y109.164 E6.40039
G1 X95.836 Y90.836 E7.62485
G1 X104.164 Y90.836 E8.18126
G1 X104.164 Y109.104 E9.40171
G1 X103.572 Y108.686 F3000.000
G1 F600
G1 X103.686 Y108.572 E9.41258
G1 X103.686 Y107.806 E9.46434
G1 X102.806 Y108.686 E9.54841
G1 X102.040 Y108.686 E9.60017
G1 X103.686 Y107.040 E9.75744
G1 X103.686 Y106.274 E9.80920
G1 X101.274 Y108.686 E10.03967
G1 X100.507 Y108.686 E10.09143
G1 X103.686 Y105.507 E10.39510
G1 X103.686 Y104.741 E10.44686
G1 X99.741 Y108.686 E10.82374
G1 X98.975 Y108.686 E10.87550
G1 X103.686 Y103.975 E11.32557
G1 X103.686 Y103.209 E11.37733
G1 X98.209 Y108.686 E11.90060
G1 X97.443 Y108.686 E11.95236
G1 X103.686 Y102.443 E12.54883
G1 X103.686 Y101.677 E12.60059
G1 X96.677 Y108.686 E13.27027
G1 X96.314 Y108.686 E13.29477
G1 X96.314 Y108.282 E13.32203
G1 X103.686 Y100.911 E14.02635
G1 X103.686 Y100.145 E14.07811
M117 Restante 00.13
G1 X96.314 Y107.516 E14.78243
G1 X96.314 Y106.750 E14.83419
G1 X103.686 Y99.379 E15.53851
G1 X103.686 Y98.613 E15.59027
G1 X96.314 Y105.984 E16.29460
G1 X96.314 Y105.218 E16.34636
G1 X103.686 Y97.847 E17.05068
G1 X103.686 Y97.081 E17.10244
G1 X96.314 Y104.452 E17.80676
G1 X96.314 Y103.686 E17.85852
G1 X103.686 Y96.314 E18.56284
G1 X103.686 Y95.548 E18.61460
G1 X96.314 Y102.920 E19.31892
G1 X96.314 Y102.153 E19.37069
G1 X103.686 Y94.782 E20.07501
G1 X103.686 Y94.016 E20.12677
G1 X96.314 Y101.387 E20.83109
G1 X96.314 Y100.621 E20.88285
G1 X103.686 Y93.250 E21.58717
G1 X103.686 Y92.484 E21.63893
G1 X96.314 Y99.855 E22.34325
G1 X96.314 Y99.089 E22.39501
G1 X103.686 Y91.718 E23.09934
G1 X103.686 Y91.314 E23.12660
G1 X103.323 Y91.314 E23.15110
G1 X96.314 Y98.323 E23.82077
G1 X96.314 Y97.557 E23.87253
G1 X102.557 Y91.314 E24.46901
G1 X101.791 Y91.314 E24.52077
G1 X96.314 Y96.791 E25.04404
G1 X96.314 Y96.025 E25.09581
G1 X101.025 Y91.314 E25.54588
G1 X100.259 Y91.314 E25.59764
G1 X96.314 Y95.259 E25.97452
G1 X96.314 Y94.493 E26.02628
G1 X99.493 Y91.314 E26.32995
G1 X98.726 Y91.314 E26.38171
G1 X96.314 Y93.726 E26.61218
G1 X96.314 Y92.960 E26.66394
G1 X97.960 Y91.314 E26.82122
G1 X97.194 Y91.314 E26.87298
G1 X96.314 Y92.194 E26.95705
G1 X96.314 Y91.428 E27.00881
G1 X96.428 Y91.314 E27.01969
M104 S205 ; set temperature
M140 S60 ; set bed temperature
G1 Z0.550 F3000.000
G1 X104.375 Y109.375 F3000.000
G1 F1200
G1 X95.625 Y109.375 E27.47688
G1 X95.625 Y90.625 E28.45653
G1 X104.375 Y90.625 E28.91372
G1 X104.375 Y109.315 E29.89023
G1 X104.800 Y109.800 F3000.000
G1 F1200
G1 X95.200 Y109.800 E30.23582
G1 X95.200 Y90.200 E30.94140
G1 X104.800 Y90.200 E31.28699
G1 X104.800 Y109.740 E31.99040
G1 X104.427 Y109.655 F3000.000
G1 X96.180 Y108.926 F3000.000
G1 F1200
G1 X96.074 Y108.819 E31.99847
G1 X96.074 Y108.091 E32.03746
G1 X96.909 Y108.926 E32.10068
G1 X97.637 Y108.926 E32.13966
G1 X96.074 Y107.363 E32.25801
G1 X96.074 Y106.634 E32.29700
G1 X98.366 Y108.926 E32.47049
G1 X99.094 Y108.926 E32.50947
G1 X96.074 Y105.906 E32.73809
G1 X96.074 Y105.178 E32.77707
G1 X99.822 Y108.926 E33.06083
G1 X100.551 Y108.926 E33.09981
G1 X96.074 Y104.449 E33.43870
G1 X96.074 Y103.721 E33.47768
G1 X101.279 Y108.926 E33.87170
G1 X102.007 Y108.926 E33.91069
G1 X96.074 Y102.993 E34.35984
G1 X96.074 Y102.265 E34.39883
G1 X102.735 Y108.926 E34.90312
G1 X103.464 Y108.926 E34.94210
G1 X96.074 Y101.536 E35.50152
G1 X96.074 Y100.808 E35.54051
G1 X103.926 Y108.660 E36.13493
G1 X103.926 Y107.932 E36.17392
G1 X96.074 Y100.080 E36.76834
G1 X96.074 Y99.351 E36.80732
G1 X103.926 Y107.204 E37.40175
G1 X103.926 Y106.475 E37.44073
G1 X96.074 Y98.623 E38.03515
G1 X96.074 Y97.895 E38.07414
G1 X103.926 Y105.747 E38.66856
G1 X103.926 Y105.019 E38.70755
G1 X96.074 Y97.166 E39.30197
G1 X96.074 Y96.438 E39.34096
G1 X103.926 Y104.290 E39.93538
G1 X103.926 Y103.562 E39.97436
G1 X96.074 Y95.710 E40.56879
G1 X96.074 Y94.981 E40.60777
G1 X103.926 Y102.834 E41.20219
G1 X103.926 Y102.105 E41.24118
G1 X96.074 Y94.253 E41.83560
G1 X96.074 Y93.525 E41.87459
G1 X103.926 Y101.377 E42.46901
G1 X103.926 Y100.649 E42.50800
G1 X96.074 Y92.796 E43.10242
G1 X96.074 Y92.068 E43.14140
G1 X103.926 Y99.920 E43.73583
G1 X103.926 Y99.192 E43.77481
G1 X96.074 Y91.340 E44.36923
G1 X96.074 Y91.074 E44.38347
G1 X96.536 Y91.074 E44.40822
G1 X103.926 Y98.464 E44.96764
G1 X103.926 Y97.735 E45.00662
G1 X97.265 Y91.074 E45.51091
G1 X97.993 Y91.074 E45.54990
G1 X103.926 Y97.007 E45.99905
G1 X103.926 Y96.279 E46.03803
G1 X98.721 Y91.074 E46.43205
G1 X99.449 Y91.074 E46.47104
G1 X103.926 Y95.551 E46.80992
G1 X103.926 Y94.822 E46.84891
G1 X100.178 Y91.074 E47.13266
G1 X100.906 Y91.074 E47.17164
G1 X103.926 Y94.094 E47.40026
G1 X103.926 Y93.366 E47.43924
G1 X101.634 Y91.074 E47.61273
G1 X102.363 Y91.074 E47.65171
G1 X103.926 Y92.637 E47.77006
G1 X103.926 Y91.909 E47.80905
G1 X103.091 Y91.074 E47.87226
G1 X103.819 Y91.074 E47.91125
G1 X103.926 Y91.181 E47.91933
G1 Z0.800 F3000.000
G1 X104.375 Y109.375 F3000.000
G1 F1200
G1 X95.625 Y109.375 E48.37653
G1 X95.625 Y90.625 E49.35617
G1 X104.375 Y90.625 E49.81337
G1 X104.375 Y109.315 E50.78987
G1 X104.800 Y109.800 F3000.000
G1 F1200
G1 X95.200 Y109.800 E51.13546
G1 X95.200 Y90.200 E51.84104
G1 X104.800 Y90.200 E52.18663
G1 X104.800 Y109.740 E52.89005
G1 X104.427 Y109.655 F3000.000
G1 X101.737 Y108.926 F3000.000
G1 F1200
G1 X103.926 Y106.737 E53.05182
G1 X103.926 Y103.182 E53.23751
G1 X98.182 Y108.926 E53.66189
G1 X96.074 Y108.926 E53.77205
G1 X96.074 Y107.480 E53.84758
G1 X103.926 Y99.628 E54.42776
G1 X103.926 Y96.074 E54.61345
G1 X96.074 Y103.926 E55.19362
G1 X96.074 Y100.372 E55.37932
G1 X103.926 Y92.520 E55.95949
G1 X103.926 Y91.074 E56.03502
G1 X101.818 Y91.074 E56.14518
G1 X96.074 Y96.818 E56.56956
G1 X96.074 Y93.263 E56.75526
G1 X98.263 Y91.074 E56.91702
M106 S239.7
G1 Z1.050 F3000.000
G1 X104.375 Y109.375 F3000.000
G1 F1200
M117 Restante 00.12
G1 X95.625 Y109.375 E57.37422
G1 X95.625 Y90.625 E58.35386
G1 X104.375 Y90.625 E58.81106
G1 X104.375 Y109.315 E59.78757
G1 X104.800 Y109.800 F3000.000
G1 F1200
G1 X95.200 Y109.800 E60.13316
G1 X95.200 Y90.200 E60.83873
G1 X104.800 Y90.200 E61.18432
G1 X104.800 Y109.740 E61.88774
G1 X104.427 Y109.655 F3000.000
G1 X96.074 Y106.737 F3000.000
G1 F1200
G1 X98.263 Y108.926 E62.04951
G1 X101.818 Y108.926 E62.23520
G1 X96.074 Y103.182 E62.65958
G1 X96.074 Y99.628 E62.84528
G1 X103.926 Y107.480 E63.42545
G1 X103.926 Y103.926 E63.61114
G1 X96.074 Y96.074 E64.19132
G1 X96.074 Y92.520 E64.37701
G1 X103.926 Y100.372 E64.95718
G1 X103.926 Y96.818 E65.14288
G1 X98.182 Y91.074 E65.56726
G1 X101.737 Y91.074 E65.75295
G1 X103.926 Y93.263 E65.91472
G1 Z1.300 F3000.000
G1 X104.375 Y109.375 F3000.000
G1 F1200
G1 X95.625 Y109.375 E66.37191
G1 X95.625 Y90.625 E67.35156
G1 X104.375 Y90.625 E67.80875
G1 X104.375 Y109.315 E68.78526
G1 X104.800 Y109.800 F3000.000
G1 F1200
G1 X95.200 Y109.800 E69.13085
G1 X95.200 Y90.200 E69.83643
G1 X104.800 Y90.200 E70.18202
G1 X104.800 Y109.740 E70.88543
G1 X104.427 Y109.655 F3000.000
G1 X101.737 Y108.926 F3000.000
G1 F1200
G1 X103.926 Y106.737 E71.04720
G1 X103.926 Y103.182 E71.23290
G1 X98.182 Y108.926 E71.65728
G1 X96.074 Y108.926 E71.76744
G1 X96.074 Y107.480 E71.84297
G1 X103.926 Y99.628 E72.42314
G1 X103.926 Y96.074 E72.60884
G1 X96.074 Y103.926 E73.18901
G1 X96.074 Y100.372 E73.37470
G1 X103.926 Y92.520 E73.95488
G1 X103.926 Y91.074 E74.03041
G1 X101.818 Y91.074 E74.14057
G1 X96.074 Y96.818 E74.56495
G1 X96.074 Y93.263 E74.75064
G1 X98.263 Y91.074 E74.91241
M106 S206.55
G1 Z1.550 F3000.000
G1 X104.375 Y109.375 F3000.000
G1 F1200
G1 X95.625 Y109.375 E75.36961
G1 X95.625 Y90.625 E76.34925
G1 X104.375 Y90.625 E76.80645
G1 X104.375 Y109.315 E77.78296
G1 X104.800 Y109.800 F3000.000
G1 F1200
G1 X95.200 Y109.800 E78.12854
G1 X95.200 Y90.200 E78.83412
G1 X104.800 Y90.200 E79.17971
G1 X104.800 Y109.740 E79.88313
G1 X104.427 Y109.655 F3000.000
G1 X97.776 Y108.950 F3000.000
M106 S255

G1 F1200
G1 X97.674 Y108.848 E79.89090
G1 X97.674 Y108.201 E79.92614
G1 X98.424 Y108.950 E79.98376
G1 X99.071 Y108.950 E80.01900
G1 X97.674 Y107.553 E80.12646
G1 X97.674 Y106.905 E80.16170
G1 X99.719 Y108.950 E80.31899
G1 X100.367 Y108.950 E80.35423
G1 X97.674 Y106.257 E80.56137
G1 X97.674 Y105.609 E80.59660
G1 X101.015 Y108.950 E80.85357
G1 X101.663 Y108.950 E80.88881
G1 X97.674 Y104.961 E81.19562
G1 X97.674 Y104.313 E81.23086
G1 X102.311 Y108.950 E81.58750
G1 X102.959 Y108.950 E81.62274
G1 X97.674 Y103.665 E82.02922
G1 X97.674 Y103.017 E82.06446
G1 X103.607 Y108.950 E82.52077
G1 X103.950 Y108.950 E82.53942
G1 X103.950 Y108.645 E82.55601
G1 X97.674 Y102.370 E83.03870
G1 X97.674 Y101.722 E83.07394
G1 X103.950 Y107.997 E83.55663
G1 X103.950 Y107.349 E83.59187
G1 X97.674 Y101.074 E84.07457
G1 X97.674 Y100.426 E84.10981
G1 X103.950 Y106.701 E84.59250
G1 X103.950 Y106.053 E84.62774
G1 X97.674 Y99.778 E85.11043
G1 X97.674 Y99.130 E85.14567
G1 X103.950 Y105.405 E85.62836
G1 X103.950 Y104.757 E85.66360
G1 X97.674 Y98.482 E86.14629
G1 X97.674 Y97.834 E86.18153
G1 X103.950 Y104.109 E86.66423
G1 X103.950 Y103.462 E86.69947
G1 X97.674 Y97.186 E87.18216
G1 X97.674 Y96.538 E87.21740
G1 X103.950 Y102.814 E87.70009
G1 X103.950 Y102.166 E87.73533
G1 X97.674 Y95.891 E88.21802
G1 X97.674 Y95.243 E88.25326
G1 X103.950 Y101.518 E88.73595
G1 X103.950 Y100.870 E88.77119
G1 X97.674 Y94.595 E89.25389
G1 X97.674 Y94.059 E89.28302
G1 X96.050 Y92.435 E89.40796
G1 X96.050 Y92.323 E89.41406
G1 X103.950 Y100.222 E90.02169
G1 X103.950 Y99.574 E90.05693
G1 X96.050 Y91.675 E90.66455
G1 X96.050 Y91.050 E90.69852
G1 X96.074 Y91.050 E90.69979
G1 X103.950 Y98.926 E91.30562
G1 X103.950 Y98.278 E91.34086
G1 X96.722 Y91.050 E91.89684
G1 X97.370 Y91.050 E91.93208
G1 X103.950 Y97.630 E92.43823
G1 X103.950 Y96.983 E92.47347
G1 X98.017 Y91.050 E92.92979
G1 X98.665 Y91.050 E92.96503
G1 X103.950 Y96.335 E93.37150
G1 X103.950 Y95.687 E93.40674
G1 X99.313 Y91.050 E93.76338
G1 X99.961 Y91.050 E93.79862
G1 X103.950 Y95.039 E94.10542
G1 X103.950 Y94.391 E94.14066
G1 X100.609 Y91.050 E94.39763
G1 X101.257 Y91.050 E94.43287
G1 X103.950 Y93.743 E94.64000
G1 X103.950 Y93.095 E94.67524
G1 X101.905 Y91.050 E94.83253
G1 X102.553 Y91.050 E94.86777
G1 X103.950 Y92.447 E94.97523
G1 X103.950 Y91.799 E95.01047
G1 X103.201 Y91.050 E95.06809
G1 X103.849 Y91.050 E95.10333
G1 X103.950 Y91.151 E95.11111
M106 S206.55

G1 X97.302 Y97.302 F3000.000
G1 F1200
G1 X96.074 Y96.074 E95.20186
G1 X96.074 Y99.628 E95.38755
G1 X97.302 Y100.856 E95.47829
G1 X97.302 Y104.411 E95.66399
G1 X96.074 Y103.182 E95.75473
G1 X96.074 Y106.737 E95.94043
G1 X97.302 Y107.965 E96.03117
G1 X97.302 Y108.926 E96.08139
G1 X96.180 Y108.926 E96.13998
G1 X96.180 Y106.843 E96.24880
M106 S211.65
G1 Z1.800 F3000.000
G1 X104.375 Y109.375 F3000.000
G1 F1200
G1 X95.625 Y109.375 E96.70600
G1 X95.625 Y90.625 E97.68564
G1 X104.375 Y90.625 E98.14284
G1 X104.375 Y109.315 E99.11934
G1 X104.800 Y109.800 F3000.000
G1 F1200
G1 X95.200 Y109.800 E99.46493
G1 X95.200 Y90.200 E100.17051
G1 X104.800 Y90.200 E100.51610
G1 X104.800 Y109.740 E101.21952
G1 X104.427 Y109.655 F3000.000
G1 X103.819 Y108.926 F3000.000
G1 F1200
G1 X103.926 Y108.819 E101.22760
G1 X103.926 Y108.091 E101.26659
G1 X103.091 Y108.926 E101.32980
G1 X102.363 Y108.926 E101.36879
G1 X103.926 Y107.363 E101.48714
G1 X103.926 Y106.634 E101.52612
G1 X101.634 Y108.926 E101.69961
G1 X100.906 Y108.926 E101.73859
G1 X103.926 Y105.906 E101.96721
G1 X103.926 Y105.178 E102.00619
G1 X100.178 Y108.926 E102.28994
G1 X99.449 Y108.926 E102.32893
